X:1
T:Title
%%score 1 2 3 4
L:1/8
M:3/2
K:C
V:1 treble nm="Part_1"
V:2 treble nm="Part_2"
V:3 treble-8 nm="Part_3"
V:4 treble-8 nm="Part_4"
V:1
 A12- | A8 A4 | A4 F4 D4 | _B4 A6 F2 | G4 E4 z2 A2- | A2 G4 E2 F2 E2 | C4 D6 C2 | E4 z2 E2 F2 G2 | %8
 A4 _B2 A4 G2 | A4 F6 G2 | E4 z2 A2 G2 F2 | F2 D4 E2 C2 B,2 | D4 z4 D4 | F6 G2 A4- | %14
 A2 _B2 G2 F2 A4 | z4 _B6 c2 | _B6 G2 A4 | G4 E2 G2 ^F2 E2 | G12 | z4 z4 G4 | A4 G4 c4 | %21
 _B4 A6 G2 | A4 G4 z2 A2 | G2 E2 G2 F4 D2 | F2 E2 C2 D4 E2 | C4 z2 F4 G2- | G2 E4 F2 E2 D2 | %27
 F4 z4 A4 | A4 F4 D4 | F4 E6 C2 | D4 A,4 z2 D2 | C2 B,2 D4 z2 A2 | G4 F2 _B4 A2 | A4 G6 E2 | %34
 G4 F4 D4 | z2 F4 E4 C2 | D4 C4 D2 B,2 | D12 | z12 | F8 F4 | F8 A4 | A8 F4- | F4 D8 | F4 E6 D2 | %44
 D4 z2 A2 G2 E2 | ^F4 F4 z4 | A4 A4 A2 G2 | G4 F2 E4 D2 | C4 z2 C2 D2 E2 | F4 G2 E4 D2 | F4 z4 A4 | %51
 A4 B6 G2 | A4 G4 B2 G2 | A4 z2 B4 A2- | A2 G2 A2 F4 G2 | E4 z2 A2 G2 E2 | F2 D4 E2 C2 B,2 | %57
 D4 z2 A2 G4 | c2 B2 ^G2 A2 G2 ^F2 | A12 | z4 z4 A4 | B4 A4 G2 A2 | G4 F6 D2 | E4 z2 A4 G2- | %64
 G2 E2 G2 F4 D2 | F2 E2 C2 D4 C2 | E4 z4 A4 | A4 G6 E2 | G4 F4 G2 A2 | _B4 A6 F2 | G4 F4 G2 E2 | %71
 G4 z4 G4 | A12- | A4 G4 F4 | E4 z2 D2 E2 F2 | G4 F4 E2 D2 | C4 D2 E4 F2 | D4 C6 B,2 | D12 | z12 | %80
 G8 G4 | G8 E4 | ^F12- | F8 G4 | A4 F4 D4 | z2 F2 G2 A2 _B4 | A4 G4 A2 F2 | A4 z4 A4 | %88
 _B2 A4 G2 A2 F2 | E4 F4 D4 | C4 z2 C2 D2 E2 | A,4 B,2 D2 C2 B,2 | D4 z4 A4 | A4 G6 E2 | %94
 F4 E4 z2 A2- | A2 G4 F2 E2 D2 | C4 D4 E4 | A4 G4 F2 D2 | F4 _E6 D2 | D4 C6 B,2 | D8 z4 | D12 | %102
 A8 G4 | G4 F4 D4 | F4 E6 C2 | D4 A,4 z4 | A6 _B2 A4 | G6 A2 F4 | A2 G2 F2 E2 F2 D2 | C4 D6 C2 | %110
 E4 z4 z4 | A8 A4- | A4 F8 | D4 z2 F2 E2 F2 | A4 G4 z4 | F4 E4 F2 D2 | E4 C4 z2 G2- | %117
 G2 F4 E2 F2 D2- | D2 E2 C2 B,2 D4 | z4 G6 F2 | F4 _E6 C2 | D4 C8 | D12 |] %123
V:2
 D12- | D8 D4 | F4 A6 G2 | G4 F6 D2 | E4 A,8 | z4 A6 B2 | A4 G4 B2 A2 | A4 G4 F2 D2 | %8
 F2 E2 D2 E2 C2 B,2 | D4 z4 A2 G2 | G4 c4 _B4 | A4 G4 A2 F2 | A8 z4 | A4 F4 D4 | F4 E4 z4 | %15
 A4 G4 F2 E2 | F4 D4 E4 | D4 C4 D2 B,2 | D12- | D12 | z12 | z4 z4 F4 | E4 D4 A4 | B2 G4 F2 A4 | %24
 F4 z2 A4 B2 | A4 F2 E2 F2 D2 | E4 z4 G4 | A4 _B2 A4 G2 | F2 E2 D6 C2 | C4 z4 E4 | F2 G2 A6 F2 | %31
 G4 F6 D2 | C4 D8 | A,4 z4 D4 | E2 F2 A4 G4 | c4 _B6 G2 | A4 G6 F2 | A4 z2 _B4 A2- | A2 G2 A4 F4 | %39
 z2 A4 F4 E2 | D4 A,8 | z2 D2 B,2 C2 D4- | D4 G8 | A4 G4 c2 B2 | A4 z2 A2 B2 G2 | %45
 A2 ^F2 D2 E2 ^C2 B,2 | D4 z4 F4 | G4 A2 B4 A2 | A4 z2 G2 A2 B2 | c4 _B6 A2 | c4 _B2 A4 G2 | %51
 F4 E6 C2 | D4 C4 D2 B,2 | D12 | z4 z4 D4 | E4 A,4 B,2 C2 | D6 C2 E4 | F4 E6 D2 | C4 B,8 | A,12- | %60
 A,12 | D12- | D8 D4 | C6 D2 E4 | z4 G4 A2 _B2 | A4 G6 F2 | A4 F4 D4 | z2 A,2 B,2 C2 D4 | %68
 C2 D2 E6 D2 | F4 E6 D2 | D4 C4 D2 B,2 | D8 z4 | F4 F4 F4 | F4 E2 D4 C2 | C4 z4 C4 | %75
 D2 E2 F2 A2 G2 F2 | A6 B2 A4 | F4 G2 F2 F2 E2 | G12- | G12 | B12- | B4 B8 | A12- | A4 A4 G4 | %84
 F2 G2 A6 F2 | F4 E6 C2 | D4 C4 D2 B,2 | D4 z2 A,2 B,2 C2 | D4 z2 A4 _B2 | G4 F4 A2 _B2 | %90
 c4 _B6 A2 | A4 F2 A2 G2 F2 | A4 G2 G4 E2 | D4 C6 B,2 | D4 z4 D4 | C4 B,6 A,2 | A,4 z4 B,4 | %97
 C4 D4 F2 G2 | A4 _B6 A2 | A4 G4 A2 F2 | A4 z4 A4 | A8 G4 | F8 _B4- | B4 A8 | z4 G6 F2 | F4 E6 D2 | %106
 D8 z4 | E4 E4 E4 | F6 G2 A4 | z4 c6 B2 | A4 G8 | F8 z4 | A8 F4- | F4 D8 | F4 E6 D2 | %115
 D4 z2 G2 F2 G2 | A4 G8 | z4 A6 _B2 | A4 F4 A2 G2 | G2 E4 D2 C2 B,2 | D4 G2 A2 _B4 | A4 G8 | A12 |] %123
V:3
 A12- | A12 | D12- | D12 | z4 A8 | z4 z4 c4 | e4 d8 | A4 E4 D4 | D12 | A8 z4 | G4 A4 _B4 | D4 G8 | %12
 z4 A8- | A12 | c8 d4 | A4 _B4 A4 | D8 z4 | G4 A4 D4 | z4 d8 | d4 B4 G4 | D4 _B4 A4 | D12 | %22
 A4 d4 c4 | B8 d4- | d4 D4 E4 | F4 G4 A2 B2 | c4 B4 z4 | c8 d4- | d4 D8 | z4 c8 | A12 | E4 D4 A4 | %32
 z4 d8 | D4 E4 B4 | G4 D4 d4 | c4 d4 _B4 | D4 G4 z4 | A4 z4 z4 | d12- | d4 d8 | z4 d8 | A12 | B12 | %43
 A12 | D12- | D12 | z4 z4 d4 | G12 | A8 D4 | z4 B8 | c8 d4 | D4 E8 | A4 B4 G4 | z4 d8- | d8 _B4 | %55
 G4 D4 G4 | F4 A8 | D4 c4 B4 | A4 ^G4 z4 | A12 | d12- | d4 A8 | z4 A8 | c12 | G8 d4 | D4 G4 z4 | %66
 c8 A4 | z4 B8 | c8 z4 | z4 C8 | G4 A4 D4 | z4 d4 B4 | A12- | A12 | z12 | G4 z4 G4 | F4 E8 | D12 | %78
 z4 d8 | d8 d4- | d4 d8 | d8 z4 | D12- | D12 | z4 d8 | A4 B8 | z4 G8 | A12- | A12 | z12 | z12 | %91
 D12- | D4 d8 | z4 G8 | F4 G4 D4 | E4 ^G8 | A8 z4 | F4 G4 D4- | D4 z4 z4 | A4 _B2 G4 F2 | A12- | %101
 A12 | z12 | z12 | z12 | z12 | A12 | z4 z4 A4 | D12 | F8 G4 | z4 E8 | D12- | D12 | F12- | F4 G8 | %115
 A4 _B4 z4 | A4 z4 G4 | F12 | A12- | A4 G8 | A4 c4 z4 | D4 E4 G4 | A12 |] %123
V:4
 D12- | D12 | d12- | d12 | c12 | c8 A4- | A4 B8 | c8 d4 | A12 | D12 | E4 F4 G4 | F4 E8 | D12- | %13
 D12 | z4 z4 D4 | F4 G4 A4 | d8 c4 | _B4 A8 | G12- | G12 | d8 e4 | d8 d4 | c4 B4 A4 | E8 D4- | %24
 D4 F4 G4 | A4 d4 c2 B2 | A4 G8 | F12- | F12 | A12 | D12 | z4 z4 D4 | E4 D8 | F4 G8 | z4 A4 _B4 | %35
 A4 G8 | F4 E8 | D12- | D12 | D12 | D12 | D12 | G12 | c12 | d8 B4 | A12 | D12 | E12 | F8 A4- | %49
 A4 G8 | F12- | F4 G8 | F4 E8 | D12- | D12 | z12 | z12 | z12 | z12 | D12- | D12 | D12 | D12 | A12 | %64
 E8 D4 | A4 _B8 | A8 F4- | F4 G8 | A8 c4 | d4 c8 | B4 A8 | G4 z4 G4 | D12- | D12 | A12 | B12 | %76
 A12- | A12 | G12- | G12 | G12 | G12 | A12- | A12 | D12- | D4 G8 | D4 E8 | D12- | D8 D4 | E4 D8 | %90
 F4 G8 | A8 z4 | D12- | D4 E8 | D4 C4 D4 | z4 E8 | F8 G4 | A4 _B4 A4- | A4 G8 | F4 _E8 | D12- | %101
 D12 | z12 | z12 | z12 | z12 | D12 | c12 | d12 | A8 B4 | c12 | d12 | A12 | D12- | D4 E8 | %115
 F4 G4 A4 | c8 _B4 | A12 | F12 | E12 | D4 C4 G4 | F4 E8 | D12 |] %123

